icons/linear-new-office-doc-document-eye 2.svg

<svg xmlns="http://www.w3.org/2000/svg" width="32px" height="32px" viewBox="0 0 32 32" version="1.1">
    <title>linear-new-office-doc-document-eye 2</title>
    <g id="linear-new-office-doc-document-eye" stroke-width="1" fill-rule="evenodd">
        <path d="M29.8320503,24.4452998 C30.0559832,24.7811992 30.0559832,25.2188008 29.8320503,25.5547002 C25.4362282,32.1484333 18.5637718,32.1484333 14.1679497,25.5547002 C13.9440168,25.2188008 13.9440168,24.7811992 14.1679497,24.4452998 C18.5637718,17.8515667 25.4362282,17.8515667 29.8320503,24.4452998 Z M27,2 C27.5522847,2 28,2.44771525 28,3 L28.00072,19.581485 C27.3531549,19.1031188 26.6838839,18.7072061 26.0003897,18.3937469 L26,4 L6,4 L6,28 L13.4896383,28.0008948 C14.1135345,28.7647491 14.7750751,29.4313384 15.4646732,30.0006629 L5,30 C4.44771525,30 4,29.5522847 4,29 L4,3 C4,2.44771525 4.44771525,2 5,2 L27,2 Z M16.3405259,24.8406891 L16.221,25 L16.3405259,25.1593109 C19.7337577,29.613563 24.2662423,29.613563 27.6594741,25.1593109 L27.778,25 L27.6594741,24.8406891 C24.2662423,20.386437 19.7337577,20.386437 16.3405259,24.8406891 Z M22,23.5 C22.8284271,23.5 23.5,24.1715729 23.5,25 C23.5,25.8284271 22.8284271,26.5 22,26.5 C21.1715729,26.5 20.5,25.8284271 20.5,25 C20.5,24.1715729 21.1715729,23.5 22,23.5 Z M15,14 C15.5522847,14 16,14.4477153 16,15 C16,15.5522847 15.5522847,16 15,16 L11,16 C10.4477153,16 10,15.5522847 10,15 C10,14.4477153 10.4477153,14 11,14 L15,14 Z M21,8 C21.5522847,8 22,8.44771525 22,9 C22,9.55228475 21.5522847,10 21,10 L11,10 C10.4477153,10 10,9.55228475 10,9 C10,8.44771525 10.4477153,8 11,8 L21,8 Z" id="&#24418;&#29366;" fill-rule="nonzero" />
    </g>
</svg>

<svg xmlns="http://www.w3.org/2000/svg" viewBox="0 0 32 32"><path fill="currentColor" d="M29.832 24.445a1 1 0 0 1 0 1.11c-4.396 6.593-11.268 6.593-15.664 0a1 1 0 0 1 0-1.11c4.396-6.593 11.268-6.593 15.664 0M27 2a1 1 0 0 1 1 1v16.581a11.292 11.292 0 0 0-2-1.187V4H6v24h7.49a14.38 14.38 0 0 0 1.975 2H5a1 1 0 0 1-1-1V3a1 1 0 0 1 1-1zM16.34 24.84l-.119.16.12.16c3.393 4.454 7.925 4.454 11.318 0l.119-.16-.119-.16c-3.393-4.454-7.925-4.454-11.318 0M22 23.5a1.5 1.5 0 1 1 0 3 1.5 1.5 0 0 1 0-3M15 14a1 1 0 0 1 0 2h-4a1 1 0 0 1 0-2zm6-6a1 1 0 0 1 0 2H11a1 1 0 0 1 0-2z"/></svg>
